X:1
T: the Summer Assembly (2nd tune)
T: the Oddfellows (Trio)
C: J.Scott Skinner
R: reel, hornpipe
B: J Scott Skinner "The Logie Collection" p.117
B: RSCDS __-8(II)
N: This is the "Trio" section of "The Oddfellows", which Skinner published as a dotted hornpipe.
N: Since both parts function as separate tunes, I've transcribed them separately here.
Z: 1997 by John Chambers <jc:trillian.mit.edu>
M: 2/4
L: 1/16
%--------------------
K: D
|: "A7"B2 | "D"A2F2    d3A  | "G"B2d2 "D"A3F  |    A2Bc "Bm"d2A2 | "E7"B2e2       "A7"e3f     |
y6        | "D"A2F2    d3A  | "G"B2d2 "D"A2d2 | "G"edcB  "D"A2FA | "G"[B2G2][d2G2] "D"[d2F2] :|
|:     f2 | "G"edcB "D"A2FA | "G"B2d2 "D"A2f2 | "G"edcB  "D"A2FA | "E7"B2e2       "A7"e2f2    |
y6        | "D"edcB "D"A2FA | "G"B2d2 "D"A2d2 | "G"edcB  "D"A2FA | "G"[B2G2][d2G2] "D"[d2F2] :|
